X: 19530
T: James And The Giant Peach
R: jig
M: 6/8
K: Adorian
|:^G|AcA E2 c|B^GB dBG|AcA E2 F|GDG B2 ^G|
AcA E2 c|B^GB dB=g|a^ga =gec|EFG A2:|
|:a|age aba|ge=f g2 d|cAG E2 c|BGE D2 a|
age aba|ge=f g2 B|A^GA =gec|EE/F/G A2:|
|:^D|EAE ADA|EAD EAc|dDc BAG|A^GE DF=G|
EAE ADA|EAD EAc|d^de B^AB|EF^G A2:|

